assets/imgs/btn_puzzle.svg

<svg width="30" height="30" viewBox="0 0 30 30" fill="none" xmlns="http://www.w3.org/2000/svg">
<path d="M6.99975 17.409V19.9761V23.6841H11.8569C13.2855 23.6841 13.5712 23.1136 13.5712 22.5432C13.5712 21.9727 12.1426 21.6875 12.714 19.4056C13.2855 17.1238 16.714 17.409 17.2855 19.4056C17.8569 21.4022 16.9998 21.4022 16.714 22.5432C16.4855 23.4559 17.1902 23.6841 17.5712 23.6841H22.9998V17.6943C22.9998 17.1238 23.3426 16.154 24.714 16.8386C26.4283 17.6943 27.5712 17.1238 27.8569 16.8386C28.1426 16.5534 28.9998 15.6977 28.9998 14.842C28.9998 13.9863 28.714 13.4158 27.8569 12.8454C26.9998 12.2749 25.5712 11.9897 24.714 12.8454C23.8569 13.7011 22.9998 13.1306 22.9998 12.8454V11.7045V5.99987H17.2855C16.8093 6.19003 16.0283 6.74147 16.714 7.42602C17.3998 8.11057 17.5712 9.04232 17.5712 9.42262C17.5712 10.1832 17.0569 11.7045 14.9998 11.7045C12.4283 11.7045 12.4283 9.70785 12.4283 9.42262C12.4283 9.13739 12.4283 8.85217 13.2855 7.42602C13.9712 6.2851 12.8093 5.99987 12.1426 5.99987H6.99975L6.99975 10.5635C7.19023 11.7045 7.22833 13.8152 5.8569 13.1306C4.14261 12.2749 3.57118 11.9897 2.42833 12.5601C1.51404 13.0165 1.09499 14.2715 0.999754 14.842C0.999754 15.4124 1.28547 16.6674 2.42833 17.1238C3.8569 17.6943 4.71404 17.1238 5.8569 16.5534C6.77118 16.097 6.99975 16.9337 6.99975 17.409Z" fill="white" stroke="#4B4B4B" stroke-width="1.8"/>
</svg>

<svg width="30" height="30" fill="none" xmlns="http://www.w3.org/2000/svg"><path d="M7 17.409v6.275h4.857c1.429 0 1.714-.57 1.714-1.14 0-.571-1.428-.857-.857-3.138.572-2.282 4-1.997 4.571 0 .572 1.996-.285 1.996-.571 3.137-.229.913.476 1.141.857 1.141H23v-5.99c0-.57.343-1.54 1.714-.855 1.714.855 2.857.285 3.143 0 .286-.286 1.143-1.141 1.143-1.997 0-.856-.286-1.426-1.143-1.997-.857-.57-2.286-.855-3.143 0-.857.856-1.714.286-1.714 0V6h-5.715c-.476.19-1.257.741-.571 1.426.686.685.857 1.616.857 1.997 0 .76-.514 2.281-2.571 2.281-2.572 0-2.572-1.996-2.572-2.281 0-.286 0-.57.857-1.997C13.972 6.286 12.81 6 12.144 6H7v4.563c.19 1.141.228 3.252-1.143 2.568-1.714-.856-2.286-1.141-3.429-.57-.914.456-1.333 1.71-1.428 2.281 0 .57.285 1.825 1.428 2.282 1.429.57 2.286 0 3.429-.57.914-.457 1.143.38 1.143.855z" fill="#fff" stroke="#4B4B4B" stroke-width="1.8"/></svg>
